!!!!SEGMENT: pl-cz--i-136_anonim--quodcumque-in-orbe-patri-perenne.krn
!!!cenid: 17xx:2313
!!!COM: Anonim
!!!COM-rismID: pe30004985
!!!CDT:
!!!CNT:
!!!OTL: [Quodcumque in orbe] / Patri perenne
!!!PDT:
!!!AGN:
!!!SMS-siglum: PL-CZ
!!!SMS-shelfmark: I-136
!!!SMS-shelfwork: W
!!!SMS-variant:
!!!SMS-altvar:
!!!NIFC-rismSourceID: 1001007127
!!!NIFC-rismChildID: 1001007127
!!!NIFC-islandoraID: pl-cz:631
!!!URL-pdf-islandora: https://repozytorium.nifc.pl/islandora/object/pl-cz%3A631/datastream/PDF/view
!!!URL-scan: https://polish.musicsources.pl/pl/lokalizacje/galeria/rekopisy/537 @EN{Scan on Polish Music Sources Website} @PL{Skany w portalu Dziedzictwo Muzyki Polskiej w otwartym dostępie}
!!!ONB-nifc:
!!!AIN: 1 alto 1 bass 1 organ 1 tenor 1 vox
!!!key:
**kern	**fba	**kern	**text	**text	**kern	**text	**kern	**text	**text	**kern	**text	**text
*part5	*part5	*part4	*part4	*part4	*part3	*part3	*part2	*part2	*part2	*part1	*part1	*part1
*staff5	*	*staff4	*staff4	*staff4	*staff3	*staff3	*staff2	*staff2	*staff2	*staff1	*staff1	*staff1
*Iorgan	*	*Ibass	*	*	*Itenor	*	*Ialto	*	*	*Ivox	*	*
*I"Organo	*	*I"Basso	*	*	*I"Tenore	*	*I"Alto	*	*	*I"Canto	*	*
*I'Org.	*	*I'B	*	*	*I'T	*	*I'A	*	*	*I'C	*	*
*clefF4	*	*clefF4	*	*	*clefC4	*	*clefC3	*	*	*clefC1	*	*
*k[]	*	*k[]	*	*	*k[]	*	*k[]	*	*	*k[]	*	*
*C:	*	*C:	*	*	*C:	*	*C:	*	*	*C:	*	*
*M3/1	*	*M3/1	*	*	*M3/1	*	*M3/1	*	*	*M3/1	*	*
=1	=1	=1	=1	=1	=1	=1	=1	=1	=1	=1	=1	=1
*2\right	*	*2\right	*	*	*2\right	*	*2\right	*	*	*2\right	*	*
!!LO:TX:t=P:problem:all\right:global
!LO:TX:b:Bi:t=Patri perenne.	!	!	!	!	!	!	!	!	!	!	!	!
!LO:TX:a:Bi:t=Hymnus in Cathedra [...]	!	!	!	!	!	!	!	!	!	!	!	!
1G	.	1G	Pa-	.	1d	Pa-	1g	Pa-	.	1g	Pa-	.
1E	.	1E	-tri	.	1d	-tri	1g	-tri	.	1g	-tri	.
1A	6	1A	pe-	.	1e	pe-	1f#X	pe-	.	1a	pe-	.
=2	=2	=2	=2	=2	=2	=2	=2	=2	=2	=2	=2	=2
0G	.	0G	-ren-	.	0B	-ren-	0g	-ren-	.	0b	-ren-	.
1F#X	6	1F#X	-ne	.	1d	-ne	1g	-ne	.	1a	-ne	.
=3	=3	=3	=3	=3	=3	=3	=3	=3	=3	=3	=3	=3
1.G	.	1.G	sit	.	1.d	sit	1.g	sit	.	1.b	sit	.
2E\	.	2E\	per	.	2e\	per	2g\	per	.	2cc#X\	per	.
1B	.	1B	su-	.	1d	Su-	1g	Su-	.	1dd	Su-	.
=4	=4	=4	=4	=4	=4	=4	=4	=4	=4	=4	=4	=4
1G	.	1G	-um	.	1B	-um	1b	-um	.	1dd	-um	.
!LO:TX:a:t=P:problem=w źródle cyfryzacja "#" pod nutą 0A	!	!	!	!	!	!	!	!	!	!	!	!
0A	4 #	1.A	[[sae-	Glo-	1.e	glo-	1.e	glo-	.	1.dd	glo-	[[Sae-
.	3	2A\	-cu-	-ri-	2e\	-ri-	2a\	-ri-	.	2cc#X\	-ri-	-cu-
=5	=5	=5	=5	=5	=5	=5	=5	=5	=5	=5	=5	=5
0.D	.	0.D	-la]]	-a	0.d	-a	0.f#X	-a	.	0.dd	-a	-la]]
=6	=6	=6	=6	=6	=6	=6	=6	=6	=6	=6	=6	=6
0.d	#	0.D	Ti-	.	0.f#X	Ti-	0.a	Ti-	.	0.dd	ti-	.
=7	=7	=7	=7	=7	=7	=7	=7	=7	=7	=7	=7	=7
0c	6	0C	-bi-	.	0e	-bi-	0a	-bi-	.	0a	-bi-	.
1B	6	1BB	-que	.	1d	-que	1g#X	-que	.	1b	-que	.
=8	=8	=8	=8	=8	=8	=8	=8	=8	=8	=8	=8	=8
0A	.	0AA	lau-	.	0c	lau-	0a	lau-	.	0cc	lau-	.
1A	.	1AA	-des	.	1c	-des	1e	-des	.	1a	-des	.
=9	=9	=9	=9	=9	=9	=9	=9	=9	=9	=9	=9	=9
1.G	.	1.G	Con-	.	1.d	Con-	1.gn	Con-	.	1.b	Con-	.
2F\	.	2F\	-ci-	.	2d\	-ci-	2a\	-ci-	.	2a\	-ci-	.
1E	.	1E	-na-	.	1e	-na-	1g	-na-	.	1b	-no-	.
!	!	!LO:LB:g=original	!	!	!LO:LB:g=original	!	!LO:LB:g=original	!	!	!LO:LB:g=original	!	!
=10	=10	=10	=10	=10	=10	=10	=10	=10	=10	=10	=10	=10
1C	.	1C	-mus	.	1e	-mus	1g	-mus	.	1cc	-mus	.
0D	#	1.D	in-	.	1.d	in-	1.g	in-	.	1.a	in-	.
.	.	2D/	-cli-	.	2c\	-cli-	2f#X\	-cli-	.	2a\	-cli-	.
=11	=11	=11	=11	=11	=11	=11	=11	=11	=11	=11	=11	=11
0.GG	.	0.GG	-tas	.	0B	-tas	0.g	-tas	.	0b	-tas	.
.	.	.	.	.	1D	ae-	.	.	.	1g	[[e-	ae-
!LO:LB:g=original	!	!	!	!	!	!	!	!	!	!	!	!
=12	=12	=12	=12	=12	=12	=12	=12	=12	=12	=12	=12	=12
0GG	.	1r	.	.	1.G	-ter-	1r	.	.	(>1.b	-ter-	-ter-
.	.	1r	.	.	.	.	1r	.	.	.	.	.
.	.	.	.	.	(<2A/	.	.	.	.	2cc\)	.	.
1GG	.	1GG	ae-	.	(<2G/)	.	1d	ae-	[[ter-	(>2b\	-nae]]	-ne
.	.	.	.	.	2F/)	-nae	.	.	.	2a\)	.	.
=13	=13	=13	=13	=13	=13	=13	=13	=13	=13	=13	=13	=13
1.C	.	1.C	-ter-	.	1E	Na-	(>1.e	-ter-	.	0g	na-	.
.	.	.	.	.	1E	-te	.	.	.	.	.	.
2D/	.	(<2D/	.	.	.	.	2f\)	.	-nae]]	.	.	.
2C/	.	(<2C/)	.	.	1G	sit	(>2e\	-ne	.	1b	-te	.
2BB/	.	2BB/)	-nae	.	.	.	2d\)	.	.	.	.	.
=14	=14	=14	=14	=14	=14	=14	=14	=14	=14	=14	=14	=14
0AA	.	1AA	na-	.	1A	su-	1c	na-	.	(>1.cc	sit	.
.	.	1AA	-te	.	(>2A\	-per-	1c	-te	.	.	.	.
.	.	.	.	.	2B\)	.	.	.	.	2dd\)	.	.
1A	.	1A	sit	.	1c	-nae	1a	sit	.	1ee	Su-	.
=15	=15	=15	=15	=15	=15	=15	=15	=15	=15	=15	=15	=15
1.F	.	1F	su-	.	1.c	Spi-	(>1.a	Su-	[[su-	2cc\	-per-	.
.	.	.	.	.	.	.	.	.	.	2b\	.	.
.	.	(>2F\	-per-	.	.	.	.	.	.	2a\	.	.
2E\	.	2E\)	.	.	4d\	.	2g\)	.	-per-	4b\	.	.
.	.	.	.	.	4e\	.	.	.	.	4cc\	.	.
1D	5	1D	-ne	.	1f	.	1f	-per-	-ne]]	1dd	-ne	.
.	6	.	.	.	.	.	.	.	.	.	.	.
=16	=16	=16	=16	=16	=16	=16	=16	=16	=16	=16	=16	=16
1E	6	(>2E\	Spi-	.	1e	.	1g	-ne	.	[>1cc	Spi-	.
.	.	2F\)	.	.	.	.	.	.	.	.	.	.
0G	4	1.G	-ri-	.	1.d	.	1.g	Spi-	.	1.cc]	-[[ri]]-	.
.	3	2G\	-tus	.	2e\	-ri-	2g\	-ri-	.	2b\	-ri-	.
!	!	!	!	!	!LO:LB:g=original	!	!	!	!	!	!	!
=17	=17	=17	=17	=17	=17	=17	=17	=17	=17	=17	=17	=17
!	!	!	!	!	!	!	!	!	!	!LO:TX:t=P:global:problem=kreska oddechu na różnych liniach [rozdzielacz słów / znak oddechu]	!	!
1.C	.	0C	Ho-	.	0c	-tus	0g	-tus	.	0cc,<	-tus	.
2D/	.	.	.	.	.	.	.	.	.	.	.	.
2C/	.	2C/	.	.	1G	Ho-	(>2e\	ho-	.	1b	ho-	.
*	*	*	*	*	*	*	*custos:c	*	*	*	*	*
2BB/	.	2BB/	.	.	.	.	2d\)	.	.	.	.	.
!	!	!LO:LB:g=original	!	!	!	!	!LO:LB:g=original	!	!	!LO:LB:g=original	!	!
=18	=18	=18	=18	=18	=18	=18	=18	=18	=18	=18	=18	=18
!	!	!	!	!	!	!	!LO:TX:t=P:global:problem=kreska oddechu na różnych liniach [rozdzielacz słów / znak oddechu]	!	!	!	!	!
0AA	.	1AA	-nor	.	1G	-nor	1c,<	-nor	.	1.cc	-nor	.
.	.	1A	ti-	.	(>2A\	ti-	1c	ti-	.	.	.	.
.	.	.	.	.	2B\)	.	.	.	.	2dd\	ti-	.
1A	.	1A	-bi	.	1c	-bi	1a	-bi	.	1ee	-bi	.
=19	=19	=19	=19	=19	=19	=19	=19	=19	=19	=19	=19	=19
1.F	.	1F	De-	.	1.c	de-	1a	de-	.	(>2cc\	De-	.
.	.	.	.	.	.	.	.	.	.	2b\)	.	.
.	.	2F\	-cus-	.	.	.	2a\	-cus-	.	2a\	-cus	.
2E\	.	2E\	-que	.	4d\	-cus-	2g,<\	-que	.	(>4b\	.	.
.	.	.	.	.	4e\	.	.	.	.	4cc,<\)	.	.
1D	5	1D	San-	.	1f	-que	1f	San-	.	1dd	San-	.
.	6	.	.	.	.	.	.	.	.	.	.	.
=20	=20	=20	=20	=20	=20	=20	=20	=20	=20	=20	=20	=20
1E	6	1E	-cta	.	1e	San-	1g,<	-cta	[[San-	1cc,<	-cta	[[San-
0G	4	1.G	Ju-	.	1.d	-cta	1.g	Ju-	-cta	1.cc	Ju-	-cta
.	3	2G\	-gi-	.	2e\	Ju-	2g\	-gi-	Ju-	2b\	-gi-	iu-
!LO:LB:g=original	!	!	!	!	!	!	!	!	!	!	!	!
=21	=21	=21	=21	=21	=21	=21	=21	=21	=21	=21	=21	=21
0.C	.	0.C	-ter	.	0.c	-giter	0.g	-ter	-gi-	0.cc	-ter	-giter//
=22	=22	=22	=22	=22	=22	=22	=22	=22	=22	=22	=22	=22
!LO:TX:a:t=P:problem=w źródle cyfryzacja "#" pomiedzy nutami 1E i 1E	!	!	!	!	!	!	!	!	!	!	!	!
1E	#	1E	Lau-	.	1B	Lau-	1g#X	Lau-	-ger	1b	Lau-	.
1E	.	1E	-de-	.	1G#X	-de-	1e	-de-	Lau-	1b	-de-	.
1AA	.	1AA	-tur	.	1A	-t(ur)	1e	-tur	-de-	1cc	-t(ur)	.
=23	=23	=23	=23	=23	=23	=23	=23	=23	=23	=23	=23	=23
0E	.	0E	om-	.	0G	om-	0e	om-	-t(ur)	0b	om-	.
1E	.	1E	-ne	.	1G	-ne	1e	-ne	omne	1b	-ne	.
=24	=24	=24	=24	=24	=24	=24	=24	=24	=24	=24	=24	=24
1.AA	.	1.AA	Tri-	.	1.c	Tri-	1.a	Tri-	Tri-	(>1.cc	Tri-	.
2BB/	.	2BB/	-ni-	.	2d\	-ni-	2g\	-ni-	-ni-	2b\)	-ni-	.
1C	.	1C	-tas	.	1e	-tas	2e\	-tas	-tas]]	(>2g\	-tas	.
.	.	.	.	.	.	.	2f#X\	.	.	2a\)	.	.
=25	=25	=25	=25	=25	=25	=25	=25	=25	=25	=25	=25	=25
1GG	.	1GG	per	.	1d	per	1g	per	.	(>2b\	per	.
.	.	.	.	.	.	.	.	.	.	2cc\)	.	.
0D	4 #	1.D	Sae-	.	1.d	Sae-	1.g	sae-	.	1.a	sae-	.
.	3	2D/	-cu-	.	2c\	-cu-	2f#X\	-cu-	.	2b\	-cu-	.
=26	=26	=26	=26	=26	=26	=26	=26	=26	=26	=26	=26	=26
!LO:TX:a:t=P:problem=w źródle ozdobna kreska taktowa	!	!	!	!	!	!	!	!	!	!	!	!
0.GG	.	0.GG	-lum	.	0.B	-lum	0.g	-lum	.	0.g	-lum.	.
==	==	==	==	==	==	==	==	==	==	==	==	==
*-	*-	*-	*-	*-	*-	*-	*-	*-	*-	*-	*-	*-
!!!system-decoration: [(s1,s2,s3,s4)]s5
!!!RDF**kern: > = above
!!!RDF**kern: < = below
!!!RDF**kern: | = vertical stroke
!!!RDF**kern: N = linked
!!!RDF**kern: i = editorial accidental
!!!RDF**kern: l = terminal long
!!!ENC: Andrzej Gręziak
!!!END: 2021-10-26
!!!EED: Wojciech Jakubiak-Danek
!!!EEV: 2021-11-17
!!!YEC: Copyright 2022 Narodowy Instytut Fryderyka Chopina (https://polishscores.org)
!!!YEM: License CC-BY-4.0 (https://creativecommons.org/licenses/by/4.0)
